src/assets/badge-creator.svg

<svg width="50" height="62" viewBox="0 0 50 62" fill="none" xmlns="http://www.w3.org/2000/svg">
<path d="M20.4219 61.6074C21.0859 61.6074 21.584 61.1426 21.584 60.4453V1.64258C21.584 0.945312 21.0859 0.480469 20.4219 0.480469C19.7246 0.480469 19.2598 0.945312 19.2598 1.64258V60.4453C19.2598 61.1426 19.7246 61.6074 20.4219 61.6074ZM39.2148 52.875C39.8789 52.875 40.377 52.377 40.377 51.6797V10.4082C40.377 9.71094 39.8789 9.21289 39.2148 9.21289C38.5176 9.21289 38.0527 9.71094 38.0527 10.4082V51.6797C38.0527 52.377 38.5176 52.875 39.2148 52.875ZM11.0254 48.5586C11.7227 48.5586 12.1875 48.0605 12.1875 47.3965V14.6914C12.1875 14.0273 11.7227 13.5293 11.0254 13.5293C10.3281 13.5293 9.86328 14.0273 9.86328 14.6914V47.3965C9.86328 48.0605 10.3281 48.5586 11.0254 48.5586ZM29.8184 45.6367C30.4824 45.6367 30.9805 45.1387 30.9805 44.4746V17.6133C30.9805 16.9492 30.4824 16.4512 29.8184 16.4512C29.1211 16.4512 28.6562 16.9492 28.6562 17.6133V44.4746C28.6562 45.1387 29.1211 45.6367 29.8184 45.6367ZM48.6113 40.5234C49.2754 40.5234 49.7734 40.0254 49.7734 39.3613V22.7266C49.7734 22.0625 49.2754 21.5645 48.6113 21.5645C47.9141 21.5645 47.4492 22.0625 47.4492 22.7266V39.3613C47.4492 40.0254 47.9141 40.5234 48.6113 40.5234ZM1.62891 37.1367C2.32617 37.1367 2.79102 36.6387 2.79102 35.9746V26.1133C2.79102 25.4492 2.32617 24.9512 1.62891 24.9512C0.931641 24.9512 0.466797 25.4492 0.466797 26.1133V35.9746C0.466797 36.6387 0.931641 37.1367 1.62891 37.1367Z" fill="black"/>
</svg>

<svg xmlns="http://www.w3.org/2000/svg" width="50" height="62" fill="none"><path fill="#000" d="M20.422 61.607c.664 0 1.162-.464 1.162-1.162V1.643c0-.698-.498-1.163-1.162-1.163-.697 0-1.162.465-1.162 1.163v58.802c0 .698.465 1.162 1.162 1.162Zm18.793-8.732c.664 0 1.162-.498 1.162-1.195V10.408c0-.697-.498-1.195-1.162-1.195-.697 0-1.162.498-1.162 1.195V51.68c0 .697.465 1.195 1.162 1.195Zm-28.19-4.316c.698 0 1.162-.498 1.162-1.162V14.69c0-.664-.464-1.162-1.162-1.162-.697 0-1.162.498-1.162 1.162v32.706c0 .663.465 1.162 1.162 1.162Zm18.793-2.922c.664 0 1.162-.498 1.162-1.162V17.613c0-.664-.498-1.162-1.162-1.162-.697 0-1.162.498-1.162 1.162v26.862c0 .664.465 1.162 1.162 1.162Zm18.793-5.114c.664 0 1.162-.498 1.162-1.162V22.727c0-.665-.498-1.163-1.162-1.163-.697 0-1.162.498-1.162 1.163V39.36c0 .664.465 1.162 1.162 1.162ZM1.63 37.137c.697 0 1.162-.498 1.162-1.162v-9.862c0-.664-.465-1.162-1.162-1.162-.697 0-1.162.498-1.162 1.162v9.862c0 .664.465 1.162 1.162 1.162Z"/></svg>
